X:1
T:Title
%%score { ( 1 4 ) | ( 2 3 ) }
L:1/8
Q:1/4=100
M:4/4
K:G
V:1 treble nm="Grand Piano"
V:4 treble 
V:2 bass 
V:3 bass 
V:1
 [Ec][EG][EG][EG] [^DA]2 [EG]2 | [Ec][EG][EG][EG] [Ge]2 c2 |[M:2/4] [Ge][Ge] [Ge]d | B2 G2 | %4
w: Frank~L.~Bristow * * * * *||||
[M:4/4] z4 G4 | [Ec][EG][EG][EG] [^DA]2 [EG]2 | [Ec][EG][EG][EG] [Ge]2 c2 | %7
w: |||
 [Ge]3 [Ec] [=Fd][Fc][FA][FB] |[M:9/8] c6- c z z |[M:4/4] [G,D=F]2 [G,B,G]2 [G,CE]2 [G,EG]2 | %10
w: |||
 z4 E4 | [G,D=F]2 [G,B,G]2 [G,CE]2 [G,EG]2 | [CDF]2 [CDA]2 [DG]4 | [Ec][EG][EG][EG] [^DA]2 [EG]2 | %14
w: ||||
 [Ec][EG][EG][EG] [Ge]2 c2 | [Ge]3 [Ec] [=Fd][Fc][FA][FB] | %16
w: ||
[M:9/8] c-[=Fc-][Ec-] [^Dc-] [Ec]2- [Ec] z z |] %17
w: |
V:2
 [C,C][C,C][C,C][C,G,] [C,F,]2 [C,G,]2 | [C,G,][C,G,][C,G,][C,G,] C2 [G,E]2 | %2
[M:2/4] [C,G,][C,G,] [C,G,][K:treble][G,=F] | [G,=F]2 [G,B,F]2 |[M:4/4][K:bass] z4 .C2 z2 | %5
 [C,C][C,C][C,C][C,G,] [C,F,]2 [C,G,]2 | z4 C2 z2 | [G,,G,]3 [G,,G,] [G,,G,][G,,G,][G,,G,][G,,G,] | %8
[M:9/8] .G,3 z3 z3 |[M:4/4] G,,2 G,,2 C,2 C,2 | G,,2 B,,2 z B,A,G, | G,,2 G,,2 C,2 C,2 | %12
 D,2 D,2 z B,A,B, | [C,C][C,C][C,C][C,G,] [C,F,]2 [C,G,]2 | [C,G,][C,G,][C,G,][C,G,] C2 [G,E]2 | %15
 [G,,G,]3 [G,,G,] [G,,G,][G,,G,][G,,G,][G,,G,] |[M:9/8] G,A,G, F, G,2- G, z z |] %17
V:3
 x8 | z4 C,4 |[M:2/4] x3[K:treble] x | x4 |[M:4/4][K:bass] [F,C^D][F,CD][F,CD][F,CD] [G,=D]4 | x8 | %6
 [C,G,][C,G,][C,G,][C,G,] C,2- [C,G,E]2 | x8 | %8
[M:9/8] C,-[C,-A,][C,-G,] [C,-F,] [C,G,]2- [C,G,] z z |[M:4/4] x8 | z4 C,4 | x8 | z4 G,4 | x8 | %14
 z4 C,4 | x8 |[M:9/8] C,6- C, z z |] %17
V:4
 x8 | x8 |[M:2/4] x4 | x4 |[M:4/4] ccBA z B,A,B, | x8 | x8 | x8 |[M:9/8] E=FE ^D E2- E z z | %9
[M:4/4] x8 | [G,D=F]2 [G,DG]2 .C2 z2 | x8 | z4 .C2 z2 | x8 | x8 | x8 |[M:9/8] .E3 z3 z3 |] %17

